icons/1_Primary/PebbleHost.svg

<svg xmlns="http://www.w3.org/2000/svg" width="1024" height="1024" fill="none">
   <g clip-path="url(#a)">
      <path fill="#98DC9A" d="M512 1024c282.77 0 512-229.23 512-512S794.77 0 512 0 0 229.23 0 512s229.23 512 512 512Z"/>
      <path fill="#fff" d="M475.24 254.68a82 82 0 0 1 46.92-8 84.168 84.168 0 0 1 32.27 11c64.46 37.233 128.923 74.457 193.39 111.67-.047 74.507-.047 149.01 0 223.51.87 24.23-10.23 48.44-28.71 64a90.226 90.226 0 0 1-15.77 10.71c-28.07 16.29-56.28 32.32-84.35 48.59-35.7 20.55-71.27 41.35-107 61.82-22.39-13-44.87-25.82-67.2-38.9.07-34.13 0-68.26.05-102.39 22.48 12.74 44.79 25.8 67.17 38.71a78571.039 78571.039 0 0 1 147.07-84.84V420.63c-49.12-28.22-98.09-56.71-147.23-84.91a59960.347 59960.347 0 0 1-147 85v272.21a13050.661 13050.661 0 0 1-34.25-19.77c-7.75-4.67-16-8.63-23.07-14.3a82.137 82.137 0 0 1-29.61-47.94c-1.5-6.86-1.72-13.91-1.74-20.91v-46.89c.3-12.26.08-24.53.15-36.79V369.4c47.773-27.56 95.54-55.133 143.3-82.72 11.46-6.89 23.13-13.44 34.69-20.17 6.94-3.94 13.77-8.19 20.92-11.83ZM444.5 466.62c22.5-13.02 45.01-26.02 67.53-39 22.48 13 44.963 26 67.45 39v78a30519.878 30519.878 0 0 1-67.46 38.94c-22.494-13.007-45-26.007-67.52-39-.007-25.98-.007-51.96 0-77.94Z"/>
   </g>
   <defs>
      <clipPath id="a">
         <path fill="#fff" d="M0 0h1024v1024H0z"/>
      </clipPath>
   </defs>
</svg>

<svg width="1024" height="1024" viewBox="0 0 1024 1024" fill="none" xmlns="http://www.w3.org/2000/svg">
<g clip-path="url(#clip0_2_3108)">
<path d="M512 1024C794.77 1024 1024 794.77 1024 512C1024 229.23 794.77 0 512 0C229.23 0 0 229.23 0 512C0 794.77 229.23 1024 512 1024Z" fill="#98DC9A"/>
<path d="M475.24 254.68C489.745 247.433 506.073 244.649 522.16 246.68C533.554 248.107 544.536 251.85 554.43 257.68C618.89 294.913 683.353 332.137 747.82 369.35C747.773 443.857 747.773 518.36 747.82 592.86C748.69 617.09 737.59 641.3 719.11 656.86C714.246 660.977 708.96 664.567 703.34 667.57C675.27 683.86 647.06 699.89 618.99 716.16C583.29 736.71 547.72 757.51 511.99 777.98C489.6 764.98 467.12 752.16 444.79 739.08C444.86 704.95 444.79 670.82 444.84 636.69C467.32 649.43 489.63 662.49 512.01 675.4C561.003 647.067 610.026 618.787 659.08 590.56V420.63C609.96 392.41 560.99 363.92 511.85 335.72C462.883 364.127 413.883 392.46 364.85 420.72V692.93C353.423 686.357 342.006 679.767 330.6 673.16C322.85 668.49 314.6 664.53 307.53 658.86C292.316 646.871 281.828 629.891 277.92 610.92C276.42 604.06 276.2 597.01 276.18 590.01V543.12C276.48 530.86 276.26 518.59 276.33 506.33V369.4C324.103 341.84 371.87 314.267 419.63 286.68C431.09 279.79 442.76 273.24 454.32 266.51C461.26 262.57 468.09 258.32 475.24 254.68ZM444.5 466.62C467 453.6 489.51 440.6 512.03 427.62C534.51 440.62 556.993 453.62 579.48 466.62V544.62C557.013 557.627 534.526 570.607 512.02 583.56C489.526 570.553 467.02 557.553 444.5 544.56C444.493 518.58 444.493 492.6 444.5 466.62Z" fill="white"/>
</g>
<defs>
<clipPath id="clip0_2_3108">
<rect width="1024" height="1024" fill="white"/>
</clipPath>
</defs>
</svg>
